Obsidian/actions/16s/text-frame-link.svg

<svg height="16" viewBox="0 0 16 16" width="16" xmlns="http://www.w3.org/2000/svg"><path d="m6 1-5 14h2.5l1.0625-3h4.4375v-4h1.640625l-2.640625-7zm1 4 1.75 5h-3.5zm3 4s.007 5.9949 0 6l4-3z" fill="#bebebe"/></svg>

<svg xmlns="http://www.w3.org/2000/svg" width="16" height="16" viewBox="0 0 16 16">
 <defs>
  <style id="current-color-scheme" type="text/css">
   .ColorScheme-Text { color:#bebebe; } .ColorScheme-Highlight { color:#4285f4; }
  </style>
 </defs>
 <path style="fill:currentColor" class="ColorScheme-Text" d="M 6 1 L 1 15 L 3.5 15 L 4.5625 12 L 9 12 L 9 8 L 10.640625 8 L 8 1 L 6 1 z M 7 5 L 8.75 10 L 5.25 10 L 7 5 z M 10 9 C 10 9 10.007 14.9949 10 15 L 14 12 L 10 9 z"/>
</svg>
